X:1836
T:The Black Headed Darling
M:6/8
L:1/8
B:O'Neill's 1836
Z:"Transcribed by Bob Safranek, rjs@gsp.org"
K:D
A|A2 c d2 e|fag fed|cAg fed|cAd D2 D/E/|
DGA/B/ cBA|d/c/d/e/f/g/ fed|cB/A/G/F/ GBA/G/|FDD D2 :|
|: z|f2 g a2 3g/a/b/|agf edc|fed gfe|agf edc|
ab/a/g/f/ ga/g/f/e/|fg/f/e/d cB/c/A|\
.a3b/a/g/ 3a/g/f/ .g3a/g/f/ 3g/f/e|.fg/f/e/d/ dcBc|
dDD D2 E|F2 G AcB|cCD EFG|AGA D2 D/E/|
FGA/B/ cBA|d/c/d/e/f/g/ fed|dcB/A/G/F/ GBA/G/|FDD D2|]
